icons/svgs/sort-outline.svg

<svg width="24" height="24" viewBox="0 0 24 24" fill="none" xmlns="http://www.w3.org/2000/svg">
<path d="M8.98423 8.875H15.9764L12.4999 5.39844L8.98423 8.875ZM13.3592 3.64062L18.3592 8.64062C18.7108 8.99219 18.828 9.53906 18.6327 10.0078C18.4374 10.4766 17.9686 10.7891 17.4608 10.7891H7.49985C6.99204 10.7891 6.52329 10.4766 6.32798 10.0078C6.13266 9.53906 6.24985 8.99219 6.60141 8.64062L11.6014 3.64062C12.0702 3.13281 12.8905 3.13281 13.3592 3.64062ZM8.98423 15.125L12.4999 18.6406L15.9764 15.125H8.98423ZM13.3592 20.3984C12.8905 20.9062 12.0702 20.9062 11.6014 20.3984L6.60141 15.3984C6.24985 15.0469 6.13266 14.5 6.32798 14.0312C6.52329 13.5625 6.99204 13.25 7.49985 13.25H17.4999C17.9686 13.25 18.4374 13.5625 18.6327 14.0312C18.828 14.5 18.7108 15.0469 18.3592 15.3984L13.3592 20.3984Z" fill="black"/>
</svg>

<svg xmlns="http://www.w3.org/2000/svg" width="24" height="24" fill="currentColor" class="icon-sort-outline" viewBox="0 0 24 24">
  <mask id="a" width="13" height="18" x="6" y="3" maskUnits="userSpaceOnUse" style="mask-type:alpha">
    <path d="M8.984 8.875h6.993L12.5 5.398zm4.376-5.234 5 5c.351.351.468.898.273 1.367a1.28 1.28 0 0 1-1.172.781h-9.96a1.28 1.28 0 0 1-1.173-.781 1.26 1.26 0 0 1 .274-1.367l5-5a1.205 1.205 0 0 1 1.758 0M8.984 15.125l3.516 3.516 3.477-3.516zm4.376 5.273a1.205 1.205 0 0 1-1.758 0l-5-5a1.26 1.26 0 0 1-.274-1.367A1.28 1.28 0 0 1 7.5 13.25h10c.469 0 .938.313 1.133.781a1.26 1.26 0 0 1-.273 1.367z"/>
  </mask>
  <g mask="url(#a)">
    <path d="M0 0h24v24H0z"/>
  </g>
</svg>
